X: 44
T: No_138_Sing_Louder.krn
N: Derived from No_138_Sing_Louder.krn
%%abc-version 2.0
%%abcx-abcm2ps-target-version 5.9.1 (29 Sep 2008)
%%abc-creator hum2abc beta
%%abcx-conversion-date 2019/03/15 08:37:56
%%humdrum-veritas 3226515807
%%humdrum-veritas-data 3277111396
%%linebreak <none>
%%barnumbers 0
L: 1/8
M: 2/4
K: Eb clef=bass
[K:clef=bass][M:2/4]E4 | 
E3C | 
E3B, | 
C/B,3/- B, z/ E/ | 
E4 | 
E4 | 
C/B,3/-B,2 | 
B,4 | 
G,/F,3/F,2 | 
A,2F,/E,3/ | 
E,2B,,2 | 
E,4 | 
B,,4- | 
B,,4 | 
B,2B,2 | 
C2CB, | 
B,3F, | 
G,F, F, z | 
A,4 | 
A,2A,2 | 
A,/F,3/-F,2 | 
E,2C, z | 
F,4 | 
F,/E,3/-E,2 | 
E,2C,2 | 
B,,4 | 
B,,4 |]  



